src/img/clock.svg

<svg width="24" height="24" xmlns="http://www.w3.org/2000/svg">

 <g>
  <title>Layer 1</title>
  <path fill="#7a4b54" id="svg_1" d="m12,2a10,10 0 0 0 -10,10a10,10 0 0 0 10,10a10,10 0 0 0 10,-10a10,10 0 0 0 -10,-10m4.2,14.2l-5.2,-3.2l0,-6l1.5,0l0,5.2l4.5,2.7l-0.8,1.3z"/>
 </g>
</svg>

<svg xmlns="http://www.w3.org/2000/svg" viewBox="0 0 24 24"><path d="M12,2A10,10 0 0,0 2,12A10,10 0 0,0 12,22A10,10 0 0,0 22,12A10,10 0 0,0 12,2M16.2,16.2L11,13V7H12.5V12.2L17,14.9L16.2,16.2Z" /></svg>
